!!!OTL: Die traurige Braut (187a), S. 407
!!!id: T0365
**kern
*clefG2
*k[]
*G:
{8g
8b
=1
4dd
8dd
8ee
=2
4dd
8dd
8ee
=3
4dd
8dd
8cc
=4
4b}
4r
=5
{8dd
8cc
8b
8b
=6
4b
8dd
8b
=7
4b
8a
8a
=8
4a}
4r
=9
{8g
8b
8dd
8dd
=10
4dd
4ee
=11
4dd
8cc
8cc
=12
4cc}
=13
{8dd
8cc
=14
8b
8b
8b
8b
=15
4dd
4b
=16
4b
4a
=17
4a}
=18
{4dd
=19
8b
8g
8g
8ee
=20
4ee}
=21
{4dd
=22
8dd
8dd
8dd
8dd
=23
4dd
4cc
=24
4b}
==
*-
!!!minrhy: 8
!!!meters: 2/4 ]  ZZ[6
!!!cut: Die traurige Braut (187a), S. 407
!!!reg: Luxemburg
!!!trd: Singendes Volk, Esch-Alzette, 1937 posth.
!!!rhy1: XX  X_XX  X_XX  X_XX  X_0_
!!!rhy2: XXXX  X_XX  X_XX  X_0_
!!!key: T0365  08  G 2/4 ]  ZZ[6
!!!mod: SECHSTONSKALA DUR ?]  AMBITUS[6
!!!kad: 324263
!!!akz: 5553_5332_1554_3532_36_553_
!!!fot: 'a__b__bs"bw_c__d__
!!!for: 'a__b__c__d__bw_cw_
!!!fok: '^a_\__^a_\__Va_\__
!! PHRAS[VORWIEGEND AUFTAKTIG]
!!!fkt: Hochzeits-, Ehestandslied
!!!bem: Heffingen, hhh Nikolaus Ewen, 30.8.1934
!! THILL; Mathias
!! PR[35] 2K[0] 2G[7] 3K[11] 3G[4] 4A[2] 4Ü[0] 5A[0] 6K[0] 6G[2]
!! 7K[0] 7G[0] 8A[0] MEHR[0] SI[25] ABS[55] SR[7] SP[18]
!! ST[12] 2k[9] 2g[24] 3k[5] 3g[2] 4d[0] 4ü[0] 5d[0] 6k[0] 6g[0]
!! 7k[0] 7g[0] 8d[0] mehr[0] si[40] dm[-15] sr[33] sp[7]
!! 1F[50] 2F[45] 3F[5] 4F[0] LF[0] 2P[0] 3P[0] 4P[0] TRI[0] DF[3] AB[60]
!! TF[0] U3K[0] U3[0] U4[0] U4Ü[0] U5[0] U6K[0] U6[0] U7K[0] U7[0]
!! N1[7] N2K[0] N2[4] N3K[0] N3[21] N4[16] N4Ü[0] N5[38] N6K[0] N6[13]
!!!n7k: 0] N7[0] O1[2] O2K[0] O2[0] O3K[0] O3[0] HÖ[0
